public/home/img/google-play.svg

<svg height="50" viewBox="0 0 151 49" xmlns="http://www.w3.org/2000/svg"><g fill="none" fill-rule="evenodd" transform="translate(.638554)"><rect fill="#5c666f" height="48.076923" rx="2" width="150.361446"/><g fill="#fff"><path d="m103.976276 33.797869-1.099818 1.0283784c-.253489.1385135-.506297.2993243-.758424.4135135-.763875.3439189-1.540698.4304054-2.2309799.4304054-.7345744 0-1.8861799-.0466216-3.0602724-.8891892-1.6320089-1.1405405-2.3454592-3.0993243-2.3454592-4.8067567 0-3.5351352 2.9021821-5.2689189 5.2687655-5.2689189.827929 0 1.677664.2054054 2.368628.6385135 1.148879.7527027 1.44598 1.7317567 1.610884 2.2567567l-5.4064126 2.1655406-1.7703379.1364865c.5730771 2.8979729 2.5505677 4.5837837 4.7358925 4.5837837 1.09164 0 1.901853-.3527027 2.645285-.7175675-.000681.0006756.148551-.0763514.042249.029054zm-3.261293-5.7655405c.439519-.1581081.667114-.2952703.667114-.6121622 0-.9108108-1.039171-1.9621621-2.2793612-1.9621621-.9192401 0-2.6432413.7094594-2.6432413 3.1722973 0 .3844594.0456554.7939189.0695052 1.2033783z"/><path d="m92.6735063 33.620842c0 .8864865.1594531 1.0243243.9151516 1.0932432.3938627.045946.7863626.0668919 1.1754553.1121622l-.8504164.502027h-4.0524247c.5315102-.6837838.6228209-.7513513.6228209-1.2074324v-.5087838l-.0088585-13.5560811h-1.7894177l1.7219568-.8229729h3.2885492c-.7127689.4087837-.925373.6587837-1.0173651 1.456081z"/><path d="m86.3887386 25.8242204c.5274217.4304054 1.6299647 1.3432432 1.6299647 3.0763513 0 1.6885135-.9601255 2.4844595-1.9284282 3.2378379-.2971005.2966216-.643945.6182432-.643945 1.1155405 0 .5040541.3475259.7777027.5976083.9817568l.830655.6358108c1.0098695.8452702 1.9304724 1.6202702 1.9304724 3.1945946 0 2.1452702-2.0933325 4.3074324-6.0489952 4.3074324-3.3321603 0-4.9430451-1.572973-4.9430451-3.2601351 0-.8216217.4115797-1.9844595 1.7723822-2.7804054 1.4255377-.8641892 3.3573729-.9797298 4.3910922-1.0472973-.3229947-.4135136-.6916448-.8466217-.6916448-1.5533784 0-.3864865.1172049-.6168919.2303211-.8885135-.2514452.0236486-.5049347.0479729-.7352558.0479729-2.4388142 0-3.8180151-1.804054-3.8180151-3.5824324 0-1.0486486.4824477-2.2114865 1.4732373-3.0554054 1.3110586-1.0702703 2.8742438-1.2547297 4.1164786-1.2547297h4.7386181l-1.4732373.825zm-1.6299647 10.1222973c-.1880729-.0243244-.3011891-.0243244-.5287845-.0243244-.2085156 0-1.4507504.0445946-2.4129202.3648649-.5090232.1844595-1.9802163.7297297-1.9802163 2.35 0 1.6162162 1.5883979 2.7810811 4.046292 2.7810811 2.2071302 0 3.3798599-1.0493243 3.3798599-2.4621622-.0006815-1.1628378-.7591057-1.7763513-2.5042309-3.0094594zm.6616621-4.3324325c.5315102-.5256756.577847-1.2527027.577847-1.6662162 0-1.6398648-.9860196-4.1939189-2.8974122-4.1939189-.5962454 0-1.2422348.2972973-1.6088405.7554054-.3884114.475-.5049348 1.0912162-.5049348 1.6837838 0 1.527027.8974346 4.0594595 2.8735624 4.0594595.5758027 0 1.195898-.2777028 1.5597781-.6385136z"/><path d="m72.1319989 35.6235447c-3.655155 0-5.61084-2.822973-5.61084-5.3777027 0-2.9858108 2.4585755-5.5405405 5.9556402-5.5405405 3.3805413 0 5.4977237 2.6243243 5.4977237 5.3797297 0 2.6905405-2.0926511 5.5385135-5.8425239 5.5385135zm2.8756066-1.8445946c.5560415-.7297297.6909633-1.6405405.6909633-2.5283784 0-2.0081081-.9648955-5.8378378-3.8166523-5.8378378-.7584242 0-1.5222998.2939189-2.0728899.7743243-.898116.797973-1.0582505 1.8-1.0582505 2.7837838 0 2.2527027 1.1223043 5.9682432 3.9093259 5.9682432.9001603 0 1.8180375-.4317567 2.3475035-1.1601351z"/><path d="m59.8943166 35.6235447c-3.6558364 0-5.6087957-2.822973-5.6087957-5.3777027 0-2.9858108 2.4592569-5.5405405 5.9549588-5.5405405 3.378497 0 5.4936352 2.6243243 5.4936352 5.3797297.0006814 2.6905405-2.0892441 5.5385135-5.8397983 5.5385135zm2.8762881-1.8445946c.5519529-.7297297.6896004-1.6405405.6896004-2.5283784 0-2.0081081-.9676212-5.8378378-3.8166523-5.8378378-.7611499 0-1.5168484.2939189-2.0688013.7743243-.8994789.797973-1.0589319 1.8-1.0589319 2.7837838 0 2.2527027 1.1270742 5.9682432 3.9093258 5.9682432.898116 0 1.8146304-.4317567 2.3454593-1.1601351z"/><path d="m52.8245492 34.8323285-3.0827593.6993243c-1.2490491.1952703-2.3706719.3675676-3.5583929.3675676-5.9467817 0-8.211833-4.3405406-8.211833-7.7364865 0-4.1486487 3.2101855-7.9939189 8.7072278-7.9939189 1.1631897 0 2.2827683.1695946 3.3021777.4445946 1.6156548.4506756 2.3706719 1.0047297 2.8435797 1.3304054l-1.7907806 1.6864865-.7550171.1675675.5383244-.8513513c-.729123-.7060811-2.0694827-2.0094595-4.6132362-2.0094595-3.400984 0-5.9672244 2.5635135-5.9672244 6.3060811 0 4.0195946 2.9301205 7.8006757 7.6278532 7.8006757 1.3805637 0 2.0912883-.275 2.7365962-.5317568v-3.4459459l-3.254478.1736486 1.725364-.9189189h4.5675808l-.5580857.5331081c-.151276.127027-.1710373.1702703-.2132855.3405405-.022487.1945946-.0429297.8135136-.0429297 1.0310811v2.6067568z"/><path d="m110.604481 33.8951663v5.8081081h-1.16319v-14.7783784h1.16319v1.6824325c.757061-1.0871622 2.141713-1.95 3.750554-1.95 2.883784 0 4.827203 2.1695946 4.827203 5.604054 0 3.4114865-1.943419 5.6263514-4.827203 5.6263514-1.518211.0006757-2.878332-.7756757-3.750554-1.9925676zm7.328027-3.6331081c0-2.5885135-1.360803-4.5628378-3.773723-4.5628378-1.49845 0-2.931483 1.1682432-3.554304 2.1858108v4.7304054c.622821 1.0202703 2.055854 2.2304054 3.554304 2.2304054 2.41292 0 3.773723-1.9912162 3.773723-4.5837838z"/><path d="m120.770636 35.6221933v-14.7777027h1.162508v14.7777027z"/><path d="m134.985127 38.7471933c.248039.1094595.672565.1777027.942409.1777027.711406 0 1.206801-.2885135 1.65177-1.3081081l.848372-1.9054054-4.582572-10.7864865h1.29743l3.93045 9.3472973 3.892291-9.3472973h1.315828l-5.588353 13.0493244c-.579891 1.3445946-1.492317 1.9912162-2.745455 1.9912162-.376145 0-.87154-.0668919-1.162508-.1547297z"/><path d="m131.587551 35.5904366c-.077683-.370946-.136285-.6972973-.179215-.970946-.036115-.2722973-.055876-.5506756-.055876-.8337837-.399315.5804054-.964215 1.0635135-1.685842 1.4445946-.722309.3824324-1.407821.5709459-2.349548.5709459-1.133207 0-2.012243-.2763514-2.640515-.8371622-.625547-.5601351-.940364-1.3189189-.940364-2.279054 0-.9587838.455872-1.7371622 1.364891-2.3324324.909018-.597973 2.084474-.8945946 3.53795-.8945946h2.712746v-1.3297298c0-.7655405-.263711-1.3668919-.788407-1.804054-.527421-.4364865-1.267447-.6581081-2.227573-.6581081-.876992 0-1.588398.202027-2.130129.5952702-.536962.4013514-.806805.8986487-.806805 1.497973h-1.190447l-.024531-.0574324c-.043611-.8074325.329809-1.5168919 1.122304-2.1283784.788407-.6114865 1.822807-.9189189 3.095025-.9189189 1.267447 0 2.293671.3027027 3.067768.9067567.772734.597973 1.160464 1.4621622 1.160464 2.5918919v5.2777027c0 .3790541.017717.7452703.066098 1.1020271.049062.3574324.127426.7141891.231684 1.0587837h-1.339678zm-4.127382-.8405406c.988064 0 1.698107-.2189189 2.424505-.652027.720946-.4310811 1.210889-.9925675 1.468467-1.6722973v-2.054054h-2.725694c-1.041214 0-1.903215.2283783-2.581231.6898648-.679379.4594595-1.02418 1.0155406-1.02418 1.6621622 0 .6094595.218056 1.097973.652123 1.4675676.434066.3736486 1.028267.5587837 1.78601.5587837z"/><path d="m37.9429442 8.72219335c0-2.27094595 1.7015142-3.73108108 3.8180152-3.73108108 1.418042 0 2.3447778.67027027 2.9233062 1.49256756l-1.0364449.59527027c-.3924999-.54121621-1.0800561-.96283783-1.8868613-.96283783-1.4391662 0-2.5090009 1.08175675-2.5090009 2.60608108 0 1.50337835 1.0691533 2.60608105 2.5090009 2.60608105.74207 0 1.3962365-.3351351 1.7233197-.6486486v-1.11418921h-2.1812362v-1.11351351h3.4466394v2.69256752c-.7086803.7898649-1.7342225 1.3195946-2.9887229 1.3195946-2.116501 0-3.8180152-1.481081-3.8180152-3.74189185z"/><path d="m46.3278588 12.3235447v-7.21418919h4.9839305v1.11418919h-3.708306v1.86013513h3.632668v1.11418919h-3.632668v2.01216218h3.708306v1.1135135z"/><path d="m54.8436066 12.3235447v-6.09932433h-2.2030417v-1.11418918h5.6823894v1.11418918h-2.2023603v6.09932433z"/><path d="m62.758339 12.3235447v-7.21418919h1.2756246v7.21418919z"/><path d="m67.5882679 12.3235447v-6.09932433h-2.2030418v-1.11418918h5.6823895v1.11418918h-2.2030418v6.09932433z"/><path d="m75.1868198 8.72219335c0-2.15270271 1.5379726-3.73108108 3.7198902-3.73108108 2.169652 0 3.7192087 1.57905405 3.7192087 3.73108108 0 2.15202705-1.5495567 3.73108105-3.7192087 3.73108105-2.182599 0-3.7198902-1.579054-3.7198902-3.73108105zm6.1300847 0c0-1.49256757-.9492228-2.60608108-2.4101945-2.60608108-1.4725559 0-2.4108759 1.11351351-2.4108759 2.60608108 0 1.48108105.93832 2.60608105 2.4108759 2.60608105 1.4609717 0 2.4101945-1.125 2.4101945-2.60608105z"/><path d="m89.1880258 12.3235447-3.7955282-5.15878379v5.15878379h-1.2756245v-7.21418919h1.3090143l3.7192087 4.99729729v-4.99729729h1.276306v7.21418919z"/><path d="m10.331017 40.5936314c-.41944624-.112389-.69246278-.5266399-.69246278-1.1676744v-21.1596064c0-.5936956.2311671-.9941001.59761168-1.1396794l10.4531031 11.791948zm1.4389447-.4491506 12.5822373-7.0937795-3.0645828-3.4570979zm12.6688797-15.4520866-12.4068902-6.9965459 9.2738069 10.5279125zm.8417974.4747099 4.8603364 2.7408614c.9202465.5189493.9286622 1.3554899 0 1.8790633l-4.9832982 2.8095495-3.2503779-3.6899296z"/></g></g></svg>

<?xml version="1.0" encoding="UTF-8" standalone="no"?>
<svg height="50px" viewBox="0 0 151 49" version="1.1" xmlns="http://www.w3.org/2000/svg" xmlns:xlink="http://www.w3.org/1999/xlink" xmlns:sketch="http://www.bohemiancoding.com/sketch/ns">
    <!-- Generator: Sketch 3.2.2 (9983) - http://www.bohemiancoding.com/sketch -->
    <title>Google Play - Small</title>
    <desc>Created with Sketch.</desc>
    <defs></defs>
    <g id="Landing" stroke="none" stroke-width="1" fill="none" fill-rule="evenodd" sketch:type="MSPage">
        <g id="Landing-Home-2" sketch:type="MSArtboardGroup" transform="translate(-1093.000000, -718.000000)">
            <g id="Apple-App-Store---Small-+-Google-Play---Small" sketch:type="MSLayerGroup" transform="translate(924.000000, 718.000000)">
                <g id="Google-Play---Small" transform="translate(169.638554, 0.000000)" sketch:type="MSShapeGroup">
                    <rect id="container" fill="#5C666F" x="0" y="0" width="150.361446" height="48.0769231" rx="2"></rect>
                    <path d="M103.976276,33.797869 L102.876458,34.8262474 C102.622969,34.9647609 102.370161,35.1255717 102.118034,35.2397609 C101.354159,35.5836798 100.577336,35.6701663 99.8870541,35.6701663 C99.1524797,35.6701663 98.0008742,35.6235447 96.8267817,34.7809771 C95.1947728,33.6404366 94.4813225,31.6816528 94.4813225,29.9742204 C94.4813225,26.4390852 97.3835046,24.7053015 99.750088,24.7053015 C100.578017,24.7053015 101.427752,24.9107069 102.118716,25.343815 C103.267595,26.0965177 103.564696,27.0755717 103.7296,27.6005717 L98.3231874,29.7661123 L96.5528495,29.9025988 C97.1259266,32.8005717 99.1034172,34.4863825 101.288742,34.4863825 C102.380382,34.4863825 103.190595,34.1336798 103.934027,33.768815 C103.933346,33.7694906 104.082578,33.6924636 103.976276,33.797869 L103.976276,33.797869 Z M100.714983,28.0323285 C101.154502,27.8742204 101.382097,27.7370582 101.382097,27.4201663 C101.382097,26.5093555 100.342926,25.4580042 99.1027358,25.4580042 C98.1834957,25.4580042 96.4594945,26.1674636 96.4594945,28.6303015 C96.4594945,29.0147609 96.5051499,29.4242204 96.5289997,29.8336798 L100.714983,28.0323285 L100.714983,28.0323285 Z" id="Shape" fill="#FFFFFF"></path>
                    <path d="M92.6735063,33.620842 C92.6735063,34.5073285 92.8329594,34.6451663 93.5886579,34.7140852 C93.9825206,34.7600312 94.3750205,34.7809771 94.7641132,34.8262474 L93.9136968,35.3282744 L89.8612721,35.3282744 C90.3927823,34.6444906 90.484093,34.5769231 90.484093,34.120842 L90.484093,33.6120582 L90.4752345,20.0559771 L88.6858168,20.0559771 L90.4077736,19.2330042 L93.6963228,19.2330042 C92.9835539,19.6417879 92.7709498,19.8917879 92.6789577,20.6890852 L92.6735063,33.620842 L92.6735063,33.620842 Z" id="Shape" fill="#FFFFFF"></path>
                    <path d="M86.3887386,25.8242204 C86.9161603,26.2546258 88.0187033,27.1674636 88.0187033,28.9005717 C88.0187033,30.5890852 87.0585778,31.3850312 86.0902751,32.1384096 C85.7931746,32.4350312 85.4463301,32.7566528 85.4463301,33.2539501 C85.4463301,33.7580042 85.793856,34.0316528 86.0439384,34.2357069 L86.8745934,34.8715177 C87.8844629,35.7167879 88.8050658,36.4917879 88.8050658,38.0661123 C88.8050658,40.2113825 86.7117333,42.3735447 82.7560706,42.3735447 C79.4239103,42.3735447 77.8130255,40.8005717 77.8130255,39.1134096 C77.8130255,38.2917879 78.2246052,37.1289501 79.5854077,36.3330042 C81.0109454,35.468815 82.9427806,35.3532744 83.9764999,35.2857069 C83.6535052,34.8721933 83.2848551,34.4390852 83.2848551,33.7323285 C83.2848551,33.345842 83.40206,33.1154366 83.5151762,32.843815 C83.263731,32.8674636 83.0102415,32.8917879 82.7799204,32.8917879 C80.3411062,32.8917879 78.9619053,31.0877339 78.9619053,29.3093555 C78.9619053,28.2607069 79.444353,27.097869 80.4351426,26.2539501 C81.7462012,25.1836798 83.3093864,24.9992204 84.5516212,24.9992204 L89.2902393,24.9992204 L87.817002,25.8242204 L86.3887386,25.8242204 L86.3887386,25.8242204 Z M84.7587739,35.9465177 C84.570701,35.9221933 84.4575848,35.9221933 84.2299894,35.9221933 C84.0214738,35.9221933 82.779239,35.9667879 81.8170692,36.2870582 C81.308046,36.4715177 79.8368529,37.0167879 79.8368529,38.6370582 C79.8368529,40.2532744 81.4252508,41.4181393 83.8831449,41.4181393 C86.0902751,41.4181393 87.2630048,40.368815 87.2630048,38.9559771 C87.2623233,37.7931393 86.5038991,37.1796258 84.7587739,35.9465177 L84.7587739,35.9465177 Z M85.420436,31.6140852 C85.9519462,31.0884096 85.998283,30.3613825 85.998283,29.947869 C85.998283,28.3080042 85.0122634,25.7539501 83.1008708,25.7539501 C82.5046254,25.7539501 81.858636,26.0512474 81.4920303,26.5093555 C81.1036189,26.9843555 80.9870955,27.6005717 80.9870955,28.1931393 C80.9870955,29.7201663 81.8845301,32.2525988 83.8606579,32.2525988 C84.4364606,32.2525988 85.0565559,31.974896 85.420436,31.6140852 L85.420436,31.6140852 Z" id="Shape" fill="#FFFFFF"></path>
                    <path d="M72.1319989,35.6235447 C68.4768439,35.6235447 66.5211589,32.8005717 66.5211589,30.245842 C66.5211589,27.2600312 68.9797344,24.7053015 72.4767991,24.7053015 C75.8573404,24.7053015 77.9745228,27.3296258 77.9745228,30.0850312 C77.9745228,32.7755717 75.8818717,35.6235447 72.1319989,35.6235447 L72.1319989,35.6235447 Z M75.0076055,33.7789501 C75.563647,33.0492204 75.6985688,32.1384096 75.6985688,31.2505717 C75.6985688,29.2424636 74.7336733,25.4127339 71.8819165,25.4127339 C71.1234923,25.4127339 70.3596167,25.7066528 69.8090266,26.1870582 C68.9109106,26.9850312 68.7507761,27.9870582 68.7507761,28.970842 C68.7507761,31.2235447 69.8730804,34.9390852 72.660102,34.9390852 C73.5602623,34.9390852 74.4781395,34.5073285 75.0076055,33.7789501 L75.0076055,33.7789501 Z" id="Shape" fill="#FFFFFF"></path>
                    <path d="M59.8943166,35.6235447 C56.2384802,35.6235447 54.2855209,32.8005717 54.2855209,30.245842 C54.2855209,27.2600312 56.7447778,24.7053015 60.2404797,24.7053015 C63.6189767,24.7053015 65.7341149,27.3296258 65.7341149,30.0850312 C65.7347963,32.7755717 63.6448708,35.6235447 59.8943166,35.6235447 L59.8943166,35.6235447 Z M62.7706047,33.7789501 C63.3225576,33.0492204 63.4602051,32.1384096 63.4602051,31.2505717 C63.4602051,29.2424636 62.4925839,25.4127339 59.6435528,25.4127339 C58.8824029,25.4127339 58.1267044,25.7066528 57.5747515,26.1870582 C56.6752726,26.9850312 56.5158196,27.9870582 56.5158196,28.970842 C56.5158196,31.2235447 57.6428938,34.9390852 60.4251454,34.9390852 C61.3232614,34.9390852 62.2397758,34.5073285 62.7706047,33.7789501 L62.7706047,33.7789501 Z" id="Shape" fill="#FFFFFF"></path>
                    <path d="M52.8245492,34.8323285 L49.7417899,35.5316528 C48.4927408,35.7269231 47.371118,35.8992204 46.183397,35.8992204 C40.2366153,35.8992204 37.971564,31.5586798 37.971564,28.1627339 C37.971564,24.0140852 41.1817495,20.168815 46.6787918,20.168815 C47.8419815,20.168815 48.9615601,20.3384096 49.9809695,20.6134096 C51.5966243,21.0640852 52.3516414,21.6181393 52.8245492,21.943815 L51.0337686,23.6303015 L50.2787515,23.797869 L50.8170759,22.9465177 C50.0879529,22.2404366 48.7475932,20.9370582 46.2038397,20.9370582 C42.8028557,20.9370582 40.2366153,23.5005717 40.2366153,27.2431393 C40.2366153,31.2627339 43.1667358,35.043815 47.8644685,35.043815 C49.2450322,35.043815 49.9557568,34.768815 50.6010647,34.5120582 L50.6010647,31.0661123 L47.3465867,31.2397609 L49.0719507,30.320842 L53.6395315,30.320842 L53.0814458,30.8539501 C52.9301698,30.9809771 52.9104085,31.0242204 52.8681603,31.1944906 C52.8456733,31.3890852 52.8252306,32.0080042 52.8252306,32.2255717 L52.8252306,34.8323285 L52.8245492,34.8323285 Z" id="Shape" fill="#FFFFFF"></path>
                    <path d="M110.604481,33.8951663 L110.604481,39.7032744 L109.441291,39.7032744 L109.441291,24.924896 L110.604481,24.924896 L110.604481,26.6073285 C111.361542,25.5201663 112.746194,24.6573285 114.355035,24.6573285 C117.238819,24.6573285 119.182238,26.8269231 119.182238,30.2613825 C119.182238,33.672869 117.238819,35.8877339 114.355035,35.8877339 C112.836824,35.8884096 111.476703,35.1120582 110.604481,33.8951663 L110.604481,33.8951663 Z M117.932508,30.2620582 C117.932508,27.6735447 116.571705,25.6992204 114.158785,25.6992204 C112.660335,25.6992204 111.227302,26.8674636 110.604481,27.8850312 L110.604481,32.6154366 C111.227302,33.6357069 112.660335,34.845842 114.158785,34.845842 C116.571705,34.845842 117.932508,32.8546258 117.932508,30.2620582 L117.932508,30.2620582 Z" id="Shape" fill="#FFFFFF"></path>
                    <path d="M120.770636,35.6221933 L120.770636,20.8444906 L121.933144,20.8444906 L121.933144,35.6221933 L120.770636,35.6221933 L120.770636,35.6221933 Z" id="Shape" fill="#FFFFFF"></path>
                    <path d="M134.985127,38.7471933 C135.233166,38.8566528 135.657692,38.924896 135.927536,38.924896 C136.638942,38.924896 137.134337,38.6363825 137.579306,37.6167879 L138.427678,35.7113825 L133.845106,24.924896 L135.142536,24.924896 L139.072986,34.2721933 L142.965277,24.924896 L144.281105,24.924896 L138.692752,37.9742204 C138.112861,39.318815 137.200435,39.9654366 135.947297,39.9654366 C135.571152,39.9654366 135.075757,39.8985447 134.784789,39.8107069 L134.985127,38.7471933 L134.985127,38.7471933 Z" id="Shape" fill="#FFFFFF"></path>
                    <path d="M131.587551,35.5904366 C131.509868,35.2194906 131.451266,34.8931393 131.408336,34.6194906 C131.372221,34.3471933 131.35246,34.068815 131.35246,33.7857069 C130.953145,34.3661123 130.388245,34.8492204 129.666618,35.2303015 C128.944309,35.6127339 128.258797,35.8012474 127.31707,35.8012474 C126.183863,35.8012474 125.304827,35.524896 124.676555,34.9640852 C124.051008,34.4039501 123.736191,33.6451663 123.736191,32.6850312 C123.736191,31.7262474 124.192063,30.947869 125.101082,30.3525988 C126.0101,29.7546258 127.185556,29.4580042 128.639032,29.4580042 L131.351778,29.4580042 L131.351778,28.1282744 C131.351778,27.3627339 131.088067,26.7613825 130.563371,26.3242204 C130.03595,25.8877339 129.295924,25.6661123 128.335798,25.6661123 C127.458806,25.6661123 126.7474,25.8681393 126.205669,26.2613825 C125.668707,26.6627339 125.398864,27.1600312 125.398864,27.7593555 L124.208417,27.7593555 L124.183886,27.7019231 C124.140275,26.8944906 124.513695,26.1850312 125.30619,25.5735447 C126.094597,24.9620582 127.128997,24.6546258 128.401215,24.6546258 C129.668662,24.6546258 130.694886,24.9573285 131.468983,25.5613825 C132.241717,26.1593555 132.629447,27.0235447 132.629447,28.1532744 L132.629447,33.4309771 C132.629447,33.8100312 132.647164,34.1762474 132.695545,34.5330042 C132.744607,34.8904366 132.822971,35.2471933 132.927229,35.5917879 L131.587551,35.5917879 L131.587551,35.5904366 Z M127.460169,34.749896 C128.448233,34.749896 129.158276,34.5309771 129.884674,34.097869 C130.60562,33.6667879 131.095563,33.1053015 131.353141,32.4255717 L131.353141,30.3715177 L128.627447,30.3715177 C127.586233,30.3715177 126.724232,30.599896 126.046216,31.0613825 C125.366837,31.520842 125.022036,32.0769231 125.022036,32.7235447 C125.022036,33.3330042 125.240092,33.8215177 125.674159,34.1911123 C126.108225,34.5647609 126.702426,34.749896 127.460169,34.749896 L127.460169,34.749896 Z" id="Shape" fill="#FFFFFF"></path>
                    <path d="M37.9429442,8.72219335 C37.9429442,6.4512474 39.6444584,4.99111227 41.7609594,4.99111227 C43.1790014,4.99111227 44.1057372,5.66138254 44.6842656,6.48367983 L43.6478207,7.0789501 C43.2553208,6.53773389 42.5677646,6.11611227 41.7609594,6.11611227 C40.3217932,6.11611227 39.2519585,7.19786902 39.2519585,8.72219335 C39.2519585,10.2255717 40.3211118,11.3282744 41.7609594,11.3282744 C42.5030294,11.3282744 43.1571959,10.9931393 43.4842791,10.6796258 L43.4842791,9.56543659 L41.3030429,9.56543659 L41.3030429,8.45192308 L44.7496823,8.45192308 L44.7496823,11.1444906 C44.041002,11.9343555 43.0154598,12.4640852 41.7609594,12.4640852 C39.6444584,12.4640852 37.9429442,10.9830042 37.9429442,8.72219335 L37.9429442,8.72219335 Z" id="Shape" fill="#FFFFFF"></path>
                    <path d="M46.3278588,12.3235447 L46.3278588,5.10935551 L51.3117893,5.10935551 L51.3117893,6.2235447 L47.6034833,6.2235447 L47.6034833,8.08367983 L51.2361513,8.08367983 L51.2361513,9.19786902 L47.6034833,9.19786902 L47.6034833,11.2100312 L51.3117893,11.2100312 L51.3117893,12.3235447 L46.3278588,12.3235447 L46.3278588,12.3235447 Z" id="Shape" fill="#FFFFFF"></path>
                    <path d="M54.8436066,12.3235447 L54.8436066,6.22422037 L52.6405649,6.22422037 L52.6405649,5.11003119 L58.3229543,5.11003119 L58.3229543,6.22422037 L56.120594,6.22422037 L56.120594,12.3235447 L54.8436066,12.3235447 L54.8436066,12.3235447 Z" id="Shape" fill="#FFFFFF"></path>
                    <path d="M62.758339,12.3235447 L62.758339,5.10935551 L64.0339636,5.10935551 L64.0339636,12.3235447 L62.758339,12.3235447 L62.758339,12.3235447 Z" id="Shape" fill="#FFFFFF"></path>
                    <path d="M67.5882679,12.3235447 L67.5882679,6.22422037 L65.3852261,6.22422037 L65.3852261,5.11003119 L71.0676156,5.11003119 L71.0676156,6.22422037 L68.8645738,6.22422037 L68.8645738,12.3235447 L67.5882679,12.3235447 L67.5882679,12.3235447 Z" id="Shape" fill="#FFFFFF"></path>
                    <path d="M75.1868198,8.72219335 C75.1868198,6.56949064 76.7247924,4.99111227 78.90671,4.99111227 C81.076362,4.99111227 82.6259187,6.57016632 82.6259187,8.72219335 C82.6259187,10.8742204 81.076362,12.4532744 78.90671,12.4532744 C76.724111,12.4532744 75.1868198,10.8742204 75.1868198,8.72219335 L75.1868198,8.72219335 Z M81.3169045,8.72219335 C81.3169045,7.22962578 80.3676817,6.11611227 78.90671,6.11611227 C77.4341541,6.11611227 76.4958341,7.22962578 76.4958341,8.72219335 C76.4958341,10.2032744 77.4341541,11.3282744 78.90671,11.3282744 C80.3676817,11.3282744 81.3169045,10.2032744 81.3169045,8.72219335 L81.3169045,8.72219335 Z" id="Shape" fill="#FFFFFF"></path>
                    <path d="M89.1880258,12.3235447 L85.3924976,7.16476091 L85.3924976,12.3235447 L84.1168731,12.3235447 L84.1168731,5.10935551 L85.4258874,5.10935551 L89.1450961,10.1066528 L89.1450961,5.10935551 L90.4214021,5.10935551 L90.4214021,12.3235447 L89.1880258,12.3235447 L89.1880258,12.3235447 Z" id="Shape" fill="#FFFFFF"></path>
                    <path d="M10.331017,40.5936314 C9.91157076,40.4812424 9.63855422,40.0669915 9.63855422,39.425957 L9.63855422,18.2663506 C9.63855422,17.672655 9.86972132,17.2722505 10.2361659,17.1266712 L10.2361659,17.1266712 L20.689269,28.9186192 L10.331017,40.5936314 L10.331017,40.5936314 Z M11.7699617,40.1444808 L24.352199,33.0507013 L21.2876162,29.5936034 L11.7699617,40.1444808 L11.7699617,40.1444808 Z M24.4388414,24.6923942 L12.0319512,17.6958483 L21.3057581,28.2237608 L24.4388414,24.6923942 L24.4388414,24.6923942 Z M25.2806388,25.1671041 L30.1409752,27.9079655 C31.0612217,28.4269148 31.0696374,29.2634554 30.1409752,29.7870288 L25.157677,32.5965783 L21.9072991,28.9066487 L25.2806388,25.1671041 L25.2806388,25.1671041 Z" id="google-play" fill="#FFFFFF"></path>
                </g>
            </g>
        </g>
    </g>
</svg>
